X: 20854
Q: "Moderate."
M: 6/8
L: 1/8
K: C
c2c (c>B)c | (d>ed) d2g | (c>d)e fdB | c2z z2G |\
c2c (c>B)c | (d>ed) d2g | (c>d)e fdB | c2z z2G |
(g>a)g g2f | (e>f)e e2d | (c>d)e f2e | d2z z2c |\
(B>c)d c2e | (d>e)f e2g | (c>de) fdB | c2z z2 |]


